Sweet-Rainbow/icons/scribus.svg

<?xml version="1.0" encoding="UTF-8" standalone="no"?>
<!-- Generator: Gravit.io -->

<svg
   xmlns:dc="http://purl.org/dc/elements/1.1/"
   xmlns:cc="http://creativecommons.org/ns#"
   xmlns:rdf="http://www.w3.org/1999/02/22-rdf-syntax-ns#"
   xmlns:svg="http://www.w3.org/2000/svg"
   xmlns="http://www.w3.org/2000/svg"
   xmlns:sodipodi="http://sodipodi.sourceforge.net/DTD/sodipodi-0.dtd"
   xmlns:inkscape="http://www.inkscape.org/namespaces/inkscape"
   style="isolation:isolate"
   viewBox="0 0 36 36"
   width="48"
   height="48"
   version="1.1"
   id="svg9"
   sodipodi:docname="scribus.svg"
   inkscape:version="0.92.4 (5da689c313, 2019-01-14)">
  <metadata
     id="metadata15">
    <rdf:RDF>
      <cc:Work
         rdf:about="">
        <dc:format>image/svg+xml</dc:format>
        <dc:type
           rdf:resource="http://purl.org/dc/dcmitype/StillImage" />
        <dc:title></dc:title>
      </cc:Work>
    </rdf:RDF>
  </metadata>
  <defs
     id="defs13" />
  <sodipodi:namedview
     pagecolor="#ffffff"
     bordercolor="#666666"
     borderopacity="1"
     objecttolerance="10"
     gridtolerance="10"
     guidetolerance="10"
     inkscape:pageopacity="0"
     inkscape:pageshadow="2"
     inkscape:window-width="640"
     inkscape:window-height="480"
     id="namedview11"
     showgrid="false"
     inkscape:zoom="29.365243"
     inkscape:cx="25.325443"
     inkscape:cy="32"
     inkscape:current-layer="svg9"
     units="px" />
  <linearGradient
     id="_lgradient_34"
     x1="0"
     y1="0.5"
     x2="1"
     y2="0.5"
     gradientTransform="matrix(41,0,0,47,7,0.5)"
     gradientUnits="userSpaceOnUse">
    <stop
       offset="0%"
       stop-opacity="1"
       style="stop-color:rgb(88,0,226)"
       id="stop2" />
    <stop
       offset="100%"
       stop-opacity="1"
       style="stop-color:rgb(255,0,230)"
       id="stop4" />
  </linearGradient>
  <g
     id="g826"
     transform="matrix(0.7659562,0,0,0.7659562,-3.0639085,-0.38291951)">
    <path
       id="path7"
       d="m 39.055,10.478 -0.065,0.075 v 0 c -1.98,2.29 -3.5,4.94 -4.46,7.81 -0.5,1.49 -0.87,3.02 -1.1,4.58 -0.25,1.66 -0.37,3.33 -0.37,5 0.01,1.55 0.1,3.1 0.27,4.64 L 16.69,39.5 23.08,31.103 v 0 c 0.684,-0.866 0.534,-2.123 -0.335,-2.805 v 0 c -0.87,-0.681 -2.127,-0.531 -2.805,0.335 v 0 L 7,47.5 36.25,35.723 c 0.42,-0.17 0.77,-0.47 0.99,-0.86 0.23,-0.39 0.31,-0.85 0.25,-1.29 -0.28,-1.87 -0.42,-3.76 -0.43,-5.64 0,-1.47 0.11,-2.94 0.32,-4.4 0.2,-1.32 0.52,-2.63 0.94,-3.9 0.8,-2.37 2.05,-4.57 3.69,-6.46 l 0.116,-0.133 2.594,2.163 v 0 c 0.844,0.707 2.105,0.593 2.815,-0.255 v 0 c 0.709,-0.847 0.595,-2.113 -0.255,-2.825 v 0 L 33.9,0.963 v 0 C 33.055,0.257 31.794,0.371 31.085,1.218 v 0 c -0.71,0.848 -0.595,2.113 0.255,2.825 v 0 l 2.401,2.004 -0.131,0.166 c -0.98,1.25 -2.13,2.37 -3.4,3.33 -1.32,0.99 -2.76,1.83 -4.28,2.48 -1.69,0.73 -3.46,1.27 -5.26,1.64 -2.06,0.42 -4.16,0.67 -6.27,0.75 -0.44,0.02 -0.87,0.19 -1.21,0.48 -0.35,0.29 -0.58,0.68 -0.67,1.12 l -2.48,12.09 v 0 c -0.221,1.082 0.478,2.14 1.56,2.36 v 0 c 1.081,0.221 2.139,-0.478 2.36,-1.56 v 0 0 l 2.17,-10.58 c 1.79,-0.13 3.58,-0.38 5.34,-0.74 2.07,-0.42 4.09,-1.05 6.03,-1.88 1.82,-0.78 3.54,-1.78 5.12,-2.97 1.55,-1.17 2.93,-2.53 4.13,-4.04 L 36.815,8.61 Z M 26.322,22.873 v 0 c 0.899,0.641 1.107,1.891 0.465,2.79 v 0 c -0.641,0.898 -1.892,1.106 -2.79,0.464 v 0 c -0.898,-0.641 -1.106,-1.891 -0.465,-2.79 v 0 c 0.642,-0.898 1.892,-1.106 2.79,-0.464 z"
       style="fill:url(#_lgradient_34);fill-rule:evenodd"
       inkscape:connector-curvature="0" />
  </g>
</svg>

<?xml version="1.0" encoding="UTF-8" standalone="no"?><!-- Generator: Gravit.io --><svg xmlns="http://www.w3.org/2000/svg" xmlns:xlink="http://www.w3.org/1999/xlink" style="isolation:isolate" viewBox="0 0 48 48" width="48pt" height="48pt"><linearGradient id="_lgradient_34" x1="0" y1="0.5" x2="1" y2="0.5" gradientTransform="matrix(41,0,0,47,7,0.5)" gradientUnits="userSpaceOnUse"><stop offset="0%" stop-opacity="1" style="stop-color:rgb(88,0,226)"/><stop offset="100%" stop-opacity="1" style="stop-color:rgb(255,0,230)"/></linearGradient><path d=" M 39.055 10.478 L 38.99 10.553 L 38.99 10.553 C 37.01 12.843 35.49 15.493 34.53 18.363 C 34.03 19.853 33.66 21.383 33.43 22.943 C 33.18 24.603 33.06 26.273 33.06 27.943 C 33.07 29.493 33.16 31.043 33.33 32.583 L 16.69 39.5 L 23.08 31.103 L 23.08 31.103 C 23.764 30.237 23.614 28.98 22.745 28.298 L 22.745 28.298 C 21.875 27.617 20.618 27.767 19.94 28.633 L 19.94 28.633 L 7 47.5 L 36.25 35.723 C 36.67 35.553 37.02 35.253 37.24 34.863 C 37.47 34.473 37.55 34.013 37.49 33.573 C 37.21 31.703 37.07 29.813 37.06 27.933 C 37.06 26.463 37.17 24.993 37.38 23.533 C 37.58 22.213 37.9 20.903 38.32 19.633 C 39.12 17.263 40.37 15.063 42.01 13.173 L 42.126 13.04 L 44.72 15.203 L 44.72 15.203 C 45.564 15.91 46.825 15.796 47.535 14.948 L 47.535 14.948 C 48.244 14.101 48.13 12.835 47.28 12.123 L 47.28 12.123 L 33.9 0.963 L 33.9 0.963 C 33.055 0.257 31.794 0.371 31.085 1.218 L 31.085 1.218 C 30.375 2.066 30.49 3.331 31.34 4.043 L 31.34 4.043 L 33.741 6.047 L 33.61 6.213 C 32.63 7.463 31.48 8.583 30.21 9.543 C 28.89 10.533 27.45 11.373 25.93 12.023 C 24.24 12.753 22.47 13.293 20.67 13.663 C 18.61 14.083 16.51 14.333 14.4 14.413 C 13.96 14.433 13.53 14.603 13.19 14.893 C 12.84 15.183 12.61 15.573 12.52 16.013 L 10.04 28.103 L 10.04 28.103 C 9.819 29.185 10.518 30.243 11.6 30.463 L 11.6 30.463 C 12.681 30.684 13.739 29.985 13.96 28.903 L 13.96 28.903 L 13.96 28.903 L 16.13 18.323 C 17.92 18.193 19.71 17.943 21.47 17.583 C 23.54 17.163 25.56 16.533 27.5 15.703 C 29.32 14.923 31.04 13.923 32.62 12.733 C 34.17 11.563 35.55 10.203 36.75 8.693 L 36.815 8.61 L 39.055 10.478 Z  M 26.322 22.873 L 26.322 22.873 C 27.221 23.514 27.429 24.764 26.787 25.663 L 26.787 25.663 C 26.146 26.561 24.895 26.769 23.997 26.127 L 23.997 26.127 C 23.099 25.486 22.891 24.236 23.532 23.337 L 23.532 23.337 C 24.174 22.439 25.424 22.231 26.322 22.873 Z " fill-rule="evenodd" fill="url(#_lgradient_34)"/></svg>
